X: 21403
M: C
L: 1/16
K: Am
a2 |\
g2e2-e3g d3ed2B2 | g2e2-e3g a3bge3 |
d3eg3b e3g (ed)(cB) | e3A2-A3B G2E2E3a |\
g2e2-e3g de3{e}d2{c}B2 | g2e2-e3a g2b3ae2 |\
g3be3g d3gB3d | e2A2-A3B G2E2E2 |]


